X:1
T:Dasz einer sey
T:André Vierendeels
T:Melody by Georg Vogler (1625) (Soprano voice)
T:Source : Catechismus---Würzburg---J.Volmari---1652. Edotor : André Vierendeels ( 27/09/17). Notes : Original clef : C1, other voices supplied editorially Original note values have been halved Text Middle German m 20 in S : "A" notated as "F" in original print           
T:Dasz einer sey
T:©
T:©
C:André Vierendeels
Z:©
%%score [ 1 2 3 ]
L:1/8
Q:1/4=80
M:2/2
K:C
V:1 treble nm="Soprano" snm="S"
V:2 treble-8 nm="Tenor" snm="T"
V:3 bass nm="Bass" snm="B"
V:1
"^1)" A4 G2 G2 | A2 c2 B2 B2 | A4 z4 | G4 A2 B2 | c4 B4 | A2 A2 G4 | z4 A4 | c2 B2 A2 E2 | %8
w: Dasz ei- ner|sey ein wah- rer|Christ,|disz auch ein|kräff- tig|Zei- chen ist,|wann|er Irz- thumb und|
w: Wer schif- fen|wil auff wil- den|Meer,|müsz hü- ten|sich vor|Klip- pen sehr,|vor|Rau- ben, Schiff- bruch|
 G2 F2 E4 | z4 C4 | E2 F2 G4 | E2 A4 A2 | ^G4 z4 | E4 G4 | A4 G4 | c2 B2 B4 | A4 z4 | A4 G2 c2 | %18
w: Ket- ze- rey,|ver-|mei- det wie|Ab- göt- te-|rey,|ihr Bey-|woh- nung|mit frey- en|Muth,|Bü- cher und|
w: und Storm- wind,|da|mit er si-|cher fäh- ren|künd:|es förch-|ten sich|von Mord und|Brand|auff Er- den|
 B2 A2 G4 | F4 !fermata!A4 |] %20
w: pre- digt has-|sen thut.|
w: al- le Leut|und Land.|
V:2
"^2)""^1)" F2 A2 d2 B2 | c2 G2 d2 g2 | f4 z4 | e4 d2 G2 | A2 c2 d4 | e2 c2 B4 | z4 c4 | %7
w: Dasz ei- * ner|sey ein wah- rer|Christ,|disz auch ein|kräff- * tig|Zei- chen ist,|wann|
w: Ein Hausz- * vat-|ter gibt acht bey|Nacht,|dasz er vor|Die- * ben|sey ver- wacht,|der|
 g2 d2 d2 c2 | c2 F2 G4 | z4 G4 | A2 A2 B4 | c4 e2 d2 | B4 z4 | c4 B4 | A4 B4 | A2 B2 d4 | f4 z4 | %17
w: er Irz- thmb und|Ket- ze- rey,|ver-|mei- det wie|Ab- göt- te-|rey|ihr Bey-|woh- nung|mit frey- en|Muth,|
w: Schaff- hirt sorgt für|sei- ne Heerd,|da|mit kein Schaff|ver- loh- ren|werd,|ein je-|der flieh't|den Na- tur|gifft,|
 c4 d2 G2 | G2 c2 B4 | A2 d2 !fermata!e4 |] %20
w: Bü- cher und|pre- digt has-|sen _ thut.|
w: sorg- lo- se|Leut die Kranck-|heit _ trifft.|
V:3
"^3)""^1)""^4)" D,4 G,2 E,2 | F,2 C,2 G,2 G,2 | D,4 z4 | C,4 F,2 E,2 | F,2 A,2 G,4 | C2 F,2 G,4 | %6
w: Dasz ei- ner|sey ein wah- rer|Christ,|disz auch ein|kräff- * tig|Zei- chen ist,|
w: Man liest die|Würmb und Raup- pen|ab,|da- mit man|Frücht im Gar-|* ten hab,|
 z4 F,4 | E,2 G,2 F,2 C,2 | E,2 D,2 C,4 | z4 E,4 | C,2 F,2 E,4 | G,2 F,2 A,2 D,2 | E,4 z4 | %13
w: wann|er Irz- thumb und|Ket- ze- rey,|ver|mei- det wie|Ab- göt- * te-|rey,|
w: kom-|men in Gar- ten|wil- de Schwein,|musz|al- les umb-|ge- * * wühlt|seyn:|
 A,4 G,4 | F,4 D,4 | F,2 E,2 G,4 | D,4 z4 | E,4 B,,2 C,2 | E,2 A,2 E,4 | D,4 !fermata!A,4 |] %20
w: ihr Bey-|woh- nung|mit frey- en|Muth,|Bü- cher und|pre- digt has-|sen thut.|
w: gleich- vol|kein Pest,|noch Zau- be-|ren|so schäd- lich|ist als Ket-|ze- rey.|

